invoice-text-arrow-right-outline.svg

<svg fill="currentColor" viewBox="0 0 24 24"><path d="M13.3 20.86 12 20l-3 2-3-2-3 2V3h18v10.34c-.63-.22-1.3-.34-2-.34V5H5v13.26l1-.66 3 2 3-2 1.04.69c-.04.21-.04.47-.04.71 0 .65.1 1.28.3 1.86M17 7v2H7V7zm-2 4v2H7v-2zm4 11v-2h-4v-2h4v-2l3 3z"/></svg>

<svg  viewBox="0 0 24 24" fill="currentColor"><path  d="M13.3 20.86L12 20L9 22L6 20L3 22V3H21V13.34C20.37 13.12 19.7 13 19 13V5H5V18.26L6 17.6L9 19.6L12 17.6L13.04 18.29C13 18.5 13 18.76 13 19C13 19.65 13.1 20.28 13.3 20.86M17 7V9H7V7H17M15 11V13H7V11H15M19 22V20H15V18H19V16L22 19L19 22Z"/></svg>
